pycon/static/svg/icons/instagram.svg

<?xml version="1.0" encoding="UTF-8"?>
<svg width="54px" height="54px" viewBox="0 0 54 54" version="1.1" xmlns="http://www.w3.org/2000/svg" xmlns:xlink="http://www.w3.org/1999/xlink">
    <!-- Generator: Sketch 52.3 (67297) - http://www.bohemiancoding.com/sketch -->
    <title>icon/social/instagram</title>
    <desc>Created with Sketch.</desc>
    <defs>
        <path d="M18.0021601,27 C18.0021601,22.029624 22.0305052,17.99928 27.00108,17.99928 C31.9716549,17.99928 36.0021601,22.029624 36.0021601,27 C36.0021601,31.970376 31.9716549,36.00072 27.00108,36.00072 C22.0305052,36.00072 18.0021601,31.970376 18.0021601,27 M13.1363495,27 C13.1363495,34.6572 19.3435737,40.864176 27.00108,40.864176 C34.6585863,40.864176 40.8658106,34.6572 40.8658106,27 C40.8658106,19.3428 34.6585863,13.135824 27.00108,13.135824 C19.3435737,13.135824 13.1365655,19.342368 13.1365655,27 M38.174775,12.586104 C38.1740593,14.3755064 39.6241344,15.8266838 41.4136084,15.8273995 C43.2030823,15.8281152 44.6543178,14.3780982 44.6550337,12.5886958 C44.6557495,10.7992934 43.2056746,9.3481159 41.4162006,9.3474 L41.4149046,9.3474 C39.6262818,9.3482336 38.1763242,10.7975532 38.174775,12.586104 M16.0926437,48.977568 C13.4601464,48.857688 12.0293052,48.419208 11.0784351,48.048768 C9.81780871,47.558016 8.91834873,46.97352 7.97266291,46.029168 C7.02697708,45.084816 6.44159366,44.186256 5.95298212,42.92568 C5.58231129,41.97528 5.14381375,40.544064 5.02414497,37.911672 C4.89324373,35.065656 4.86710668,34.210728 4.86710668,27.000432 C4.86710668,19.790136 4.89540382,18.937584 5.02414497,16.089192 C5.14402976,13.4568 5.58576743,12.028392 5.95298212,11.075184 C6.44375375,9.814608 7.02827313,8.915184 7.97266291,7.969536 C8.91705268,7.023888 9.81564863,6.438528 11.0784351,5.949936 C12.0288732,5.57928 13.4601464,5.1408 16.0926437,5.021136 C18.9387736,4.89024 19.7937357,4.864104 27.00108,4.864104 C34.2084243,4.864104 35.0642506,4.891968 37.9127565,5.021568 C40.5452538,5.141448 41.9737189,5.583168 42.9269651,5.950368 C44.1875915,6.43896 45.0870515,7.025616 46.0327373,7.969968 C46.9784231,8.91432 47.5616465,9.81504 48.0524181,11.075616 C48.4230889,12.026016 48.8615865,13.457232 48.9812553,16.089624 C49.1121565,18.938016 49.1382935,19.790568 49.1382935,27.000864 C49.1382935,34.21116 49.1121565,35.063712 48.9812553,37.912104 C48.8613705,40.544496 48.4207128,41.97528 48.0524181,42.926112 C47.5616465,44.186688 46.9771271,45.086112 46.0327373,46.0296 C45.0883475,46.973088 44.1875915,47.558448 42.9269651,48.0492 C41.9765271,48.419856 40.5452538,48.858336 37.9127565,48.978 C35.0666267,49.108896 34.2116645,49.135032 27.00108,49.135032 C19.7904956,49.135032 18.9379095,49.108896 16.0926437,48.978 M15.8690748,0.163512 C12.9946478,0.294408 11.0304812,0.750168 9.31515661,1.417608 C7.53978159,2.106864 6.03484939,3.03156 4.53207728,4.531896 C3.02930517,6.032232 2.10694828,7.53732 1.41766471,9.314784 C0.750198008,11.03112 0.294419777,12.994128 0.163518541,15.86844 C0.0304572183,18.747288 0,19.667664 0,27 C0,34.332336 0.0304572183,35.252712 0.163518541,38.13156 C0.294419777,41.006088 0.750198008,42.96888 1.41766471,44.685216 C2.10694828,46.46052 3.02952118,47.968416 4.53207728,49.468104 C6.03463339,50.967792 7.5376215,51.891192 9.31515661,52.582392 C11.0337213,53.249832 12.9946478,53.705592 15.8690748,53.836488 C18.74955,53.967384 19.6684507,54 27.00108,54 C34.3337093,54 35.2541222,53.969544 38.1330853,53.836488 C41.0077283,53.705592 42.9705988,53.249832 44.6870035,52.582392 C46.4623785,51.891192 47.9673107,50.96844 49.4700828,49.468104 C50.9728549,47.967768 51.8932677,46.46052 52.5844954,44.685216 C53.2519621,42.96888 53.7099004,41.005872 53.8386415,38.13156 C53.9695428,35.250552 54,34.332336 54,27 C54,19.667664 53.9695428,18.747288 53.8386415,15.86844 C53.7077403,12.993912 53.2519621,11.03004 52.5844954,9.314784 C51.8932677,7.53948 50.9704788,6.034608 49.4700828,4.531896 C47.9696868,3.029184 46.4623785,2.106864 44.6891636,1.417608 C42.9705988,0.750168 41.0075123,0.292248 38.1352454,0.163512 C35.2558502,0.031968 34.3358694,0 27.0043202,0 C19.6727709,0 18.75063,0.030456 15.8701548,0.163512" id="path-1"></path>
    </defs>
    <g id="icon/social/instagram" stroke="none" stroke-width="1" fill="none" fill-rule="evenodd">
        <g id="fill/licorice">
            <mask id="mask-2" fill="white">
                <use xlink:href="#path-1"></use>
            </mask>
            <use id="Mask" fill="#FFFFFF" fill-rule="nonzero" xlink:href="#path-1"></use>
            <g mask="url(#mask-2)" fill="#131515" id="Rectangle">
                <rect x="0" y="0" width="54" height="54"></rect>
            </g>
        </g>
    </g>
</svg>

<svg viewBox="0 0 54 54" xmlns="http://www.w3.org/2000/svg" xmlns:xlink="http://www.w3.org/1999/xlink">
  <path d="M18.002 27a9 9 0 1 1 18 0 9 9 0 0 1-18 0m-4.866 0c0 7.657 6.208 13.864 13.865 13.864 7.658 0 13.865-6.207 13.865-13.864 0-7.657-6.207-13.864-13.865-13.864-7.657 0-13.864 6.206-13.864 13.864m25.038-14.414a3.24 3.24 0 1 0 3.241-3.239h-.001a3.242 3.242 0 0 0-3.24 3.24m-22.082 36.39c-2.633-.12-4.064-.558-5.015-.928-1.26-.491-2.16-1.075-3.105-2.02-.946-.944-1.531-1.843-2.02-3.103-.37-.95-.81-2.382-.929-5.014-.13-2.846-.157-3.701-.157-10.912 0-7.21.028-8.062.157-10.91.12-2.633.562-4.062.929-5.015.49-1.26 1.075-2.16 2.02-3.105.944-.946 1.843-1.531 3.105-2.02.95-.37 2.382-.81 5.015-.929 2.846-.13 3.7-.157 10.908-.157 7.207 0 8.063.028 10.912.158 2.632.12 4.06.561 5.014.928 1.26.489 2.16 1.076 3.106 2.02.945.944 1.529 1.845 2.02 3.106.37.95.809 2.381.928 5.014.131 2.848.157 3.7.157 10.91 0 7.211-.026 8.064-.157 10.912-.12 2.632-.56 4.063-.929 5.014-.49 1.26-1.075 2.16-2.02 3.104-.944.943-1.844 1.528-3.105 2.02-.95.37-2.382.808-5.014.928-2.846.13-3.701.157-10.912.157-7.21 0-8.063-.026-10.908-.157M15.869.164c-2.874.13-4.839.586-6.554 1.254-1.775.689-3.28 1.614-4.783 3.114-1.503 1.5-2.425 3.005-3.114 4.783C.75 11.03.294 12.995.164 15.868.03 18.748 0 19.668 0 27s.03 8.253.164 11.132c.13 2.874.586 4.837 1.254 6.553.689 1.776 1.612 3.283 3.114 4.783 1.503 1.5 3.006 2.423 4.783 3.114 1.719.668 3.68 1.124 6.554 1.254 2.88.131 3.8.164 11.132.164 7.333 0 8.253-.03 11.132-.164 2.875-.13 4.838-.586 6.554-1.254 1.775-.69 3.28-1.614 4.783-3.114 1.503-1.5 2.423-3.007 3.114-4.783.668-1.716 1.126-3.68 1.255-6.553.13-2.881.161-3.8.161-11.132s-.03-8.253-.161-11.132c-.131-2.874-.587-4.838-1.255-6.553-.69-1.776-1.614-3.28-3.114-4.783-1.5-1.503-3.008-2.425-4.78-3.114C42.97.75 41.007.292 38.134.164 35.255.032 34.335 0 27.005 0 19.672 0 18.75.03 15.87.164"/>
</svg>
